flaticon/religion/crown-of-thorns.svg

<svg xmlns="http://www.w3.org/2000/svg" width="32" height="32" viewBox="0 0 24 24">
    <path d="M 23.601562 11.601562 L 22.726562 11.601562 C 22.558594 10.851562 22.152344 10.191406 21.558594 9.703125 C 21.9375 8.824219 21.941406 7.839844 21.546875 6.949219 L 22.246094 6.546875 C 22.4375 6.4375 22.503906 6.191406 22.390625 6 C 22.28125 5.808594 22.039062 5.742188 21.84375 5.855469 L 21.148438 6.257812 C 20.699219 5.648438 20.085938 5.21875 19.386719 5.003906 C 19.179688 4.167969 18.667969 3.433594 17.90625 2.9375 C 17.851562 2.902344 17.796875 2.878906 17.746094 2.847656 L 18.144531 2.152344 C 18.257812 1.960938 18.191406 1.71875 18 1.609375 C 17.808594 1.496094 17.5625 1.5625 17.453125 1.753906 L 17.011719 2.519531 C 16.289062 2.296875 15.523438 2.324219 14.808594 2.589844 C 14.234375 1.816406 13.375 1.324219 12.398438 1.222656 L 12.398438 0.398438 C 12.398438 0.179688 12.222656 0 12 0 C 11.777344 0 11.601562 0.179688 11.601562 0.398438 L 11.601562 1.222656 C 10.855469 1.3125 10.183594 1.625 9.65625 2.121094 C 8.828125 1.882812 7.933594 1.957031 7.125 2.371094 C 7.066406 2.402344 7.015625 2.4375 6.960938 2.46875 L 6.546875 1.753906 C 6.4375 1.5625 6.191406 1.496094 6 1.609375 C 5.808594 1.71875 5.742188 1.960938 5.855469 2.152344 L 6.308594 2.941406 C 5.757812 3.457031 5.402344 4.128906 5.273438 4.878906 C 4.320312 4.988281 3.464844 5.484375 2.886719 6.277344 L 2.152344 5.851562 C 1.960938 5.742188 1.71875 5.808594 1.609375 6 C 1.496094 6.191406 1.5625 6.4375 1.753906 6.546875 L 2.492188 6.972656 C 2.191406 7.660156 2.128906 8.402344 2.292969 9.109375 C 1.671875 9.703125 1.289062 10.515625 1.242188 11.425781 C 1.238281 11.484375 1.246094 11.542969 1.246094 11.601562 L 0.398438 11.601562 C 0.179688 11.601562 0 11.777344 0 12 C 0 12.222656 0.179688 12.398438 0.398438 12.398438 L 1.328125 12.398438 C 1.496094 13.140625 1.902344 13.792969 2.488281 14.28125 C 2.113281 15.15625 2.109375 16.136719 2.496094 17.023438 L 1.753906 17.453125 C 1.5625 17.5625 1.496094 17.808594 1.609375 18 C 1.683594 18.128906 1.816406 18.199219 1.953125 18.199219 C 2.023438 18.199219 2.089844 18.183594 2.152344 18.144531 L 2.898438 17.71875 C 3.34375 18.328125 3.960938 18.765625 4.660156 18.980469 C 4.871094 19.8125 5.382812 20.550781 6.144531 21.046875 C 6.1875 21.074219 6.230469 21.09375 6.273438 21.117188 L 5.851562 21.84375 C 5.742188 22.039062 5.808594 22.28125 6 22.390625 C 6.0625 22.429688 6.132812 22.445312 6.199219 22.445312 C 6.335938 22.445312 6.472656 22.375 6.546875 22.246094 L 7.003906 21.449219 C 7.738281 21.683594 8.515625 21.660156 9.238281 21.390625 C 9.804688 22.152344 10.644531 22.644531 11.597656 22.757812 L 11.597656 23.601562 C 11.597656 23.820312 11.777344 24 12 24 C 12.21875 24 12.398438 23.820312 12.398438 23.601562 L 12.398438 22.761719 C 13.160156 22.679688 13.851562 22.367188 14.390625 21.863281 C 14.699219 21.953125 15.011719 22 15.332031 22 C 15.871094 22 16.414062 21.871094 16.925781 21.609375 C 16.96875 21.589844 17.003906 21.5625 17.042969 21.539062 L 17.453125 22.246094 C 17.527344 22.375 17.660156 22.445312 17.800781 22.445312 C 17.867188 22.445312 17.9375 22.429688 18 22.390625 C 18.191406 22.28125 18.257812 22.035156 18.144531 21.84375 L 17.699219 21.074219 C 18.269531 20.554688 18.644531 19.867188 18.773438 19.101562 C 19.714844 18.992188 20.5625 18.511719 21.136719 17.738281 L 21.84375 18.144531 C 21.90625 18.183594 21.976562 18.199219 22.042969 18.199219 C 22.183594 18.199219 22.316406 18.128906 22.390625 18 C 22.5 17.808594 22.4375 17.5625 22.246094 17.453125 L 21.539062 17.046875 C 21.851562 16.347656 21.921875 15.59375 21.757812 14.875 C 22.375 14.277344 22.757812 13.464844 22.804688 12.554688 C 22.808594 12.503906 22.800781 12.453125 22.804688 12.402344 L 23.601562 12.402344 C 23.820312 12.402344 24 12.222656 24 12 C 24 11.78125 23.820312 11.601562 23.601562 11.601562 Z M 18.027344 18.316406 C 16.519531 18.164062 15.101562 18.992188 14.488281 20.382812 C 14.402344 20.578125 14.289062 20.753906 14.167969 20.917969 C 13.984375 20.828125 13.804688 20.71875 13.640625 20.585938 C 12.996094 20.0625 12.21875 19.796875 11.433594 19.796875 C 10.78125 19.796875 10.128906 19.980469 9.546875 20.355469 C 8.976562 19.089844 7.738281 18.296875 6.375 18.296875 C 6.246094 18.296875 6.117188 18.304688 5.988281 18.320312 C 5.777344 18.34375 5.570312 18.335938 5.367188 18.308594 C 5.351562 18.105469 5.355469 17.898438 5.390625 17.6875 C 5.632812 16.1875 4.890625 14.722656 3.542969 14.027344 C 4.425781 12.792969 4.421875 11.152344 3.527344 9.929688 C 3.402344 9.753906 3.304688 9.570312 3.222656 9.382812 C 3.394531 9.269531 3.574219 9.167969 3.773438 9.09375 C 5.195312 8.554688 6.09375 7.179688 6.023438 5.664062 C 7.527344 5.816406 8.949219 4.988281 9.5625 3.597656 C 9.648438 3.40625 9.757812 3.226562 9.882812 3.0625 C 10.066406 3.15625 10.246094 3.261719 10.410156 3.394531 C 11.585938 4.355469 13.226562 4.445312 14.5 3.628906 C 15.125 5.007812 16.550781 5.824219 18.058594 5.660156 C 18.273438 5.640625 18.480469 5.648438 18.683594 5.671875 C 18.699219 5.875 18.695312 6.082031 18.660156 6.292969 C 18.417969 7.792969 19.160156 9.257812 20.507812 9.953125 C 19.621094 11.1875 19.625 12.828125 20.523438 14.054688 C 20.648438 14.226562 20.746094 14.410156 20.828125 14.597656 C 20.65625 14.710938 20.476562 14.8125 20.273438 14.890625 C 18.855469 15.429688 17.957031 16.804688 18.027344 18.316406 Z M 20.453125 6.65625 L 19.765625 7.054688 C 19.574219 7.164062 19.511719 7.410156 19.621094 7.601562 C 19.695312 7.726562 19.828125 7.800781 19.96875 7.800781 C 20.035156 7.800781 20.105469 7.78125 20.167969 7.746094 L 20.855469 7.347656 C 21.101562 7.96875 21.109375 8.636719 20.886719 9.25 C 19.839844 8.71875 19.261719 7.582031 19.449219 6.421875 C 19.476562 6.246094 19.492188 6.074219 19.496094 5.898438 C 19.863281 6.074219 20.191406 6.328125 20.453125 6.65625 Z M 16.59375 3.242188 L 16.253906 3.832031 C 16.144531 4.023438 16.207031 4.269531 16.398438 4.378906 C 16.464844 4.414062 16.53125 4.433594 16.597656 4.433594 C 16.738281 4.433594 16.871094 4.359375 16.945312 4.230469 L 17.347656 3.539062 C 17.386719 3.5625 17.429688 3.582031 17.46875 3.605469 C 17.949219 3.917969 18.296875 4.351562 18.496094 4.847656 C 18.324219 4.84375 18.148438 4.847656 17.972656 4.867188 C 16.804688 4.992188 15.703125 4.359375 15.222656 3.285156 C 15.671875 3.148438 16.140625 3.136719 16.59375 3.242188 Z M 11.601562 2.027344 L 11.601562 2.800781 C 11.601562 3.019531 11.777344 3.199219 12 3.199219 C 12.222656 3.199219 12.398438 3.019531 12.398438 2.800781 L 12.398438 2.019531 C 13.066406 2.113281 13.660156 2.441406 14.082031 2.949219 C 13.097656 3.589844 11.824219 3.519531 10.914062 2.777344 C 10.777344 2.664062 10.632812 2.5625 10.484375 2.476562 C 10.8125 2.246094 11.191406 2.089844 11.601562 2.027344 Z M 6.726562 3.664062 L 7.054688 4.230469 C 7.128906 4.359375 7.261719 4.433594 7.398438 4.433594 C 7.46875 4.433594 7.535156 4.414062 7.597656 4.378906 C 7.792969 4.269531 7.855469 4.023438 7.746094 3.832031 L 7.359375 3.160156 C 7.402344 3.136719 7.441406 3.105469 7.488281 3.082031 C 7.996094 2.824219 8.546875 2.738281 9.074219 2.8125 C 8.984375 2.960938 8.902344 3.113281 8.828125 3.277344 C 8.355469 4.351562 7.257812 4.988281 6.085938 4.867188 C 6.1875 4.414062 6.410156 4.003906 6.726562 3.664062 Z M 3.1875 7.375 L 3.832031 7.746094 C 3.894531 7.78125 3.964844 7.800781 4.03125 7.800781 C 4.171875 7.800781 4.304688 7.726562 4.378906 7.601562 C 4.488281 7.410156 4.421875 7.164062 4.230469 7.054688 L 3.582031 6.675781 C 3.992188 6.144531 4.574219 5.796875 5.222656 5.6875 C 5.285156 6.859375 4.589844 7.925781 3.488281 8.34375 C 3.324219 8.40625 3.164062 8.480469 3.015625 8.566406 C 2.980469 8.164062 3.035156 7.757812 3.1875 7.375 Z M 2.160156 12.398438 L 2.800781 12.398438 C 3.019531 12.398438 3.199219 12.222656 3.199219 12 C 3.199219 11.777344 3.019531 11.601562 2.800781 11.601562 L 2.042969 11.601562 C 2.042969 11.554688 2.039062 11.511719 2.042969 11.46875 C 2.070312 10.898438 2.273438 10.378906 2.601562 9.957031 C 2.683594 10.109375 2.777344 10.257812 2.882812 10.402344 C 3.574219 11.347656 3.578125 12.621094 2.886719 13.574219 C 2.539062 13.253906 2.292969 12.847656 2.160156 12.398438 Z M 3.589844 17.316406 L 4.230469 16.945312 C 4.425781 16.835938 4.488281 16.589844 4.378906 16.398438 C 4.269531 16.207031 4.023438 16.144531 3.832031 16.253906 L 3.191406 16.625 C 2.945312 16.007812 2.941406 15.339844 3.164062 14.730469 C 4.210938 15.261719 4.789062 16.398438 4.597656 17.558594 C 4.570312 17.734375 4.554688 17.910156 4.554688 18.082031 C 4.183594 17.90625 3.851562 17.652344 3.589844 17.316406 Z M 7.417969 20.734375 L 7.746094 20.167969 C 7.855469 19.976562 7.792969 19.730469 7.601562 19.621094 C 7.40625 19.511719 7.164062 19.574219 7.054688 19.765625 L 6.671875 20.425781 C 6.640625 20.40625 6.609375 20.394531 6.582031 20.375 C 6.101562 20.0625 5.753906 19.628906 5.550781 19.132812 C 5.726562 19.140625 5.898438 19.132812 6.078125 19.113281 C 7.246094 18.984375 8.347656 19.621094 8.824219 20.695312 C 8.367188 20.835938 7.882812 20.847656 7.417969 20.734375 Z M 12.398438 21.960938 L 12.398438 21.199219 C 12.398438 20.980469 12.222656 20.800781 12 20.800781 C 11.777344 20.800781 11.601562 20.980469 11.601562 21.199219 L 11.601562 21.953125 C 10.953125 21.855469 10.378906 21.527344 9.96875 21.035156 C 10.953125 20.394531 12.222656 20.460938 13.132812 21.207031 C 13.273438 21.316406 13.417969 21.417969 13.566406 21.503906 C 13.222656 21.742188 12.828125 21.902344 12.398438 21.960938 Z M 17.285156 20.355469 L 16.945312 19.769531 C 16.835938 19.574219 16.589844 19.511719 16.398438 19.621094 C 16.207031 19.730469 16.144531 19.976562 16.253906 20.167969 L 16.644531 20.847656 C 16.617188 20.863281 16.59375 20.882812 16.5625 20.898438 C 16.054688 21.15625 15.503906 21.242188 14.972656 21.167969 C 15.066406 21.023438 15.148438 20.867188 15.21875 20.703125 C 15.695312 19.628906 16.792969 18.992188 17.964844 19.113281 C 17.855469 19.585938 17.621094 20.011719 17.285156 20.355469 Z M 20.847656 16.648438 L 20.167969 16.253906 C 19.976562 16.144531 19.730469 16.207031 19.621094 16.398438 C 19.511719 16.589844 19.574219 16.835938 19.765625 16.945312 L 20.441406 17.335938 C 20.03125 17.847656 19.460938 18.183594 18.828125 18.292969 C 18.765625 17.121094 19.460938 16.054688 20.558594 15.636719 C 20.726562 15.574219 20.882812 15.5 21.035156 15.417969 C 21.070312 15.828125 21.011719 16.25 20.847656 16.648438 Z M 22.007812 12.515625 C 21.976562 13.082031 21.777344 13.601562 21.445312 14.027344 C 21.367188 13.871094 21.273438 13.722656 21.167969 13.582031 C 20.472656 12.632812 20.472656 11.359375 21.164062 10.410156 C 21.511719 10.734375 21.761719 11.144531 21.894531 11.601562 L 21.199219 11.601562 C 20.980469 11.601562 20.800781 11.777344 20.800781 12 C 20.800781 12.222656 20.980469 12.398438 21.199219 12.398438 L 22.003906 12.398438 C 22.003906 12.4375 22.007812 12.476562 22.007812 12.515625 Z M 22.007812 12.515625"/>
    <path d="M 18.246094 15.5625 C 18.851562 14.511719 19.199219 13.296875 19.199219 12 C 19.199219 10.703125 18.851562 9.488281 18.246094 8.4375 C 18.242188 8.425781 18.242188 8.410156 18.234375 8.398438 C 18.226562 8.386719 18.214844 8.378906 18.203125 8.363281 C 17.582031 7.304688 16.695312 6.417969 15.636719 5.796875 C 15.621094 5.785156 15.613281 5.773438 15.601562 5.765625 C 15.589844 5.757812 15.574219 5.757812 15.5625 5.753906 C 14.511719 5.148438 13.296875 4.800781 12 4.800781 C 10.703125 4.800781 9.488281 5.148438 8.4375 5.753906 C 8.425781 5.757812 8.410156 5.757812 8.398438 5.765625 C 8.386719 5.773438 8.378906 5.785156 8.363281 5.796875 C 7.304688 6.417969 6.417969 7.304688 5.796875 8.363281 C 5.785156 8.375 5.773438 8.386719 5.765625 8.398438 C 5.757812 8.410156 5.757812 8.421875 5.753906 8.433594 C 5.148438 9.488281 4.800781 10.703125 4.800781 12 C 4.800781 13.296875 5.148438 14.511719 5.753906 15.5625 C 5.757812 15.574219 5.757812 15.589844 5.765625 15.601562 C 5.777344 15.621094 5.792969 15.640625 5.808594 15.660156 C 6.433594 16.707031 7.3125 17.585938 8.363281 18.203125 C 8.378906 18.214844 8.386719 18.226562 8.398438 18.234375 C 8.414062 18.246094 8.433594 18.25 8.449219 18.253906 C 9.5 18.855469 10.707031 19.199219 12 19.199219 C 13.292969 19.199219 14.5 18.855469 15.550781 18.257812 C 15.566406 18.25 15.585938 18.246094 15.601562 18.234375 C 15.613281 18.226562 15.621094 18.214844 15.636719 18.203125 C 16.6875 17.585938 17.566406 16.707031 18.191406 15.660156 C 18.207031 15.640625 18.222656 15.621094 18.234375 15.601562 C 18.242188 15.589844 18.242188 15.574219 18.246094 15.5625 Z M 15.539062 17.328125 L 15.042969 16.46875 C 14.933594 16.277344 14.6875 16.210938 14.496094 16.324219 C 14.304688 16.433594 14.238281 16.679688 14.351562 16.871094 L 14.84375 17.726562 C 14.097656 18.097656 13.273438 18.324219 12.402344 18.378906 L 12.402344 17.394531 C 12.402344 17.171875 12.222656 16.992188 12 16.992188 C 11.78125 16.992188 11.601562 17.171875 11.601562 17.394531 L 11.601562 18.378906 C 10.726562 18.324219 9.902344 18.097656 9.15625 17.726562 L 9.652344 16.871094 C 9.761719 16.679688 9.695312 16.433594 9.503906 16.324219 C 9.3125 16.214844 9.066406 16.277344 8.957031 16.46875 L 8.460938 17.328125 C 7.753906 16.855469 7.144531 16.246094 6.671875 15.539062 L 7.53125 15.042969 C 7.722656 14.933594 7.789062 14.6875 7.675781 14.496094 C 7.566406 14.304688 7.320312 14.238281 7.128906 14.351562 L 6.277344 14.84375 C 5.90625 14.097656 5.675781 13.273438 5.621094 12.402344 L 6.609375 12.402344 C 6.828125 12.402344 7.007812 12.222656 7.007812 12 C 7.007812 11.78125 6.828125 11.601562 6.609375 11.601562 L 5.621094 11.601562 C 5.675781 10.726562 5.90625 9.902344 6.277344 9.15625 L 7.128906 9.652344 C 7.195312 9.6875 7.261719 9.703125 7.328125 9.703125 C 7.46875 9.703125 7.601562 9.632812 7.675781 9.503906 C 7.789062 9.3125 7.722656 9.066406 7.53125 8.957031 L 6.671875 8.460938 C 7.144531 7.753906 7.753906 7.144531 8.460938 6.671875 L 8.957031 7.53125 C 9.03125 7.660156 9.164062 7.730469 9.304688 7.730469 C 9.371094 7.730469 9.441406 7.714844 9.503906 7.675781 C 9.695312 7.566406 9.761719 7.320312 9.652344 7.128906 L 9.15625 6.277344 C 9.902344 5.90625 10.726562 5.675781 11.601562 5.621094 L 11.601562 6.609375 C 11.601562 6.828125 11.78125 7.007812 12 7.007812 C 12.222656 7.007812 12.402344 6.828125 12.402344 6.609375 L 12.402344 5.621094 C 13.273438 5.675781 14.097656 5.90625 14.84375 6.277344 L 14.351562 7.128906 C 14.238281 7.320312 14.304688 7.566406 14.496094 7.675781 C 14.558594 7.714844 14.628906 7.730469 14.695312 7.730469 C 14.835938 7.730469 14.96875 7.660156 15.042969 7.53125 L 15.539062 6.671875 C 16.246094 7.144531 16.855469 7.753906 17.328125 8.460938 L 16.46875 8.957031 C 16.277344 9.066406 16.214844 9.3125 16.324219 9.503906 C 16.398438 9.632812 16.53125 9.703125 16.671875 9.703125 C 16.738281 9.703125 16.808594 9.6875 16.871094 9.652344 L 17.726562 9.15625 C 18.097656 9.902344 18.324219 10.726562 18.378906 11.601562 L 17.394531 11.601562 C 17.171875 11.601562 16.992188 11.78125 16.992188 12 C 16.992188 12.222656 17.171875 12.402344 17.394531 12.402344 L 18.378906 12.402344 C 18.324219 13.273438 18.097656 14.097656 17.726562 14.84375 L 16.871094 14.351562 C 16.679688 14.238281 16.433594 14.304688 16.324219 14.496094 C 16.214844 14.6875 16.277344 14.933594 16.46875 15.042969 L 17.328125 15.539062 C 16.855469 16.246094 16.246094 16.855469 15.539062 17.328125 Z M 15.539062 17.328125"/>
</svg>

<svg xmlns="http://www.w3.org/2000/svg" width="32" height="32" viewBox="0 0 24 24">
    <path d="M23.602 11.602h-.875a3.407 3.407 0 0 0-1.168-1.899 3.414 3.414 0 0 0-.012-2.754l.7-.402A.397.397 0 0 0 22.39 6a.396.396 0 0 0-.547-.145l-.696.403a3.43 3.43 0 0 0-1.761-1.254 3.44 3.44 0 0 0-1.48-2.066c-.055-.036-.11-.06-.16-.09l.398-.696A.393.393 0 0 0 18 1.61a.397.397 0 0 0-.547.145l-.441.766a3.408 3.408 0 0 0-2.203.07 3.416 3.416 0 0 0-2.41-1.367V.398a.398.398 0 1 0-.797 0v.825a3.41 3.41 0 0 0-1.946.898 3.434 3.434 0 0 0-2.531.25c-.059.031-.11.067-.164.098l-.414-.715A.397.397 0 0 0 6 1.609a.393.393 0 0 0-.145.543l.454.79a3.424 3.424 0 0 0-1.036 1.937 3.419 3.419 0 0 0-2.386 1.398l-.735-.425A.397.397 0 0 0 1.61 6a.397.397 0 0 0 .145.547l.738.426a3.39 3.39 0 0 0-.199 2.136 3.421 3.421 0 0 0-1.05 2.317c-.005.058.003.117.003.176H.398a.398.398 0 1 0 0 .796h.93a3.425 3.425 0 0 0 1.16 1.883 3.434 3.434 0 0 0 .008 2.742l-.742.43a.397.397 0 0 0-.145.547.395.395 0 0 0 .543.145l.746-.426A3.428 3.428 0 0 0 4.66 18.98c.211.832.723 1.57 1.485 2.067.043.027.085.047.128.07l-.421.727a.4.4 0 0 0 .347.601c.137 0 .274-.07.348-.199l.457-.797c.734.235 1.512.211 2.234-.058a3.425 3.425 0 0 0 2.36 1.367v.844a.401.401 0 0 0 .8 0v-.84a3.433 3.433 0 0 0 1.993-.899c.308.09.62.137.941.137a3.49 3.49 0 0 0 1.594-.39c.043-.02.078-.047.117-.07l.41.706a.397.397 0 0 0 .547.145.397.397 0 0 0 .145-.547l-.446-.77c.57-.52.946-1.207 1.074-1.972.942-.11 1.79-.59 2.364-1.364l.707.407c.062.039.133.054.199.054a.4.4 0 0 0 .203-.746l-.707-.406c.313-.7.383-1.453.219-2.172.617-.598 1-1.41 1.047-2.32.004-.051-.004-.102 0-.153h.797a.401.401 0 0 0 0-.8zm-5.575 6.714a3.473 3.473 0 0 0-3.539 2.067c-.086.195-.199.37-.32.535-.184-.09-.363-.2-.527-.332a3.47 3.47 0 0 0-4.094-.23 3.472 3.472 0 0 0-3.559-2.036c-.21.024-.418.016-.62-.011a2.561 2.561 0 0 1 .023-.622c.242-1.5-.5-2.964-1.848-3.66a3.482 3.482 0 0 0-.016-4.097 3.029 3.029 0 0 1-.304-.547c.172-.113.351-.215.55-.29a3.48 3.48 0 0 0 2.25-3.429 3.476 3.476 0 0 0 3.54-2.066c.085-.192.195-.371.32-.535.183.093.363.199.527.332a3.476 3.476 0 0 0 4.09.234 3.482 3.482 0 0 0 3.559 2.031c.214-.02.421-.012.625.012.015.203.011.41-.024.621-.242 1.5.5 2.965 1.848 3.66a3.476 3.476 0 0 0 .015 4.102c.125.172.223.355.305.543a2.88 2.88 0 0 1-.555.293 3.48 3.48 0 0 0-2.246 3.425zm2.426-11.66l-.687.399a.4.4 0 0 0 .402.691l.687-.398c.247.62.254 1.289.032 1.902a2.681 2.681 0 0 1-1.438-2.828c.028-.176.043-.348.047-.524.367.176.695.43.957.758zm-3.86-3.414l-.34.59a.4.4 0 0 0 .345.602.4.4 0 0 0 .347-.204l.403-.69c.039.022.082.042.12.065.481.313.829.747 1.028 1.243-.172-.004-.348 0-.523.02a2.686 2.686 0 0 1-2.75-1.583c.449-.137.918-.148 1.37-.043zm-4.991-1.215v.774a.398.398 0 1 0 .796 0V2.02a2.651 2.651 0 0 1 1.684.93c-.984.64-2.258.57-3.168-.173a3.154 3.154 0 0 0-.43-.3c.329-.23.707-.387 1.118-.45zM6.727 3.664l.328.566a.399.399 0 0 0 .343.204c.07 0 .137-.02.2-.055a.398.398 0 0 0 .148-.547L7.36 3.16c.043-.023.082-.055.13-.078a2.67 2.67 0 0 1 1.585-.27c-.09.149-.172.301-.246.465a2.678 2.678 0 0 1-2.742 1.59c.101-.453.324-.863.64-1.203zm-3.54 3.711l.645.371a.414.414 0 0 0 .2.055c.14 0 .273-.074.347-.2a.402.402 0 0 0-.149-.546l-.648-.38c.41-.53.992-.878 1.64-.987a2.679 2.679 0 0 1-1.734 2.656 3.271 3.271 0 0 0-.472.222 2.6 2.6 0 0 1 .171-1.191zM2.16 12.398h.64a.398.398 0 1 0 0-.796h-.757c0-.047-.004-.09 0-.133.027-.57.23-1.09.559-1.512.082.152.175.3.28.445.692.946.696 2.22.005 3.172a2.589 2.589 0 0 1-.727-1.176zm1.43 4.918l.64-.37a.398.398 0 1 0-.398-.692l-.64.371a2.642 2.642 0 0 1-.028-1.895 2.673 2.673 0 0 1 1.434 2.829 3.419 3.419 0 0 0-.043.523 2.65 2.65 0 0 1-.965-.766zm3.828 3.418l.328-.566a.4.4 0 0 0-.691-.402l-.383.66c-.031-.02-.063-.031-.09-.051a2.689 2.689 0 0 1-1.031-1.242c.176.008.347 0 .527-.02a2.673 2.673 0 0 1 2.746 1.582c-.457.14-.941.153-1.406.04zm4.98 1.227v-.762a.398.398 0 1 0-.796 0v.754a2.625 2.625 0 0 1-1.633-.918 2.67 2.67 0 0 1 3.164.172c.14.11.285.211.433.297a2.677 2.677 0 0 1-1.168.457zm4.887-1.606l-.34-.585a.398.398 0 1 0-.691.398l.39.68c-.027.015-.05.035-.081.05a2.678 2.678 0 0 1-1.59.27c.093-.145.175-.3.246-.465a2.686 2.686 0 0 1 2.746-1.59c-.11.473-.344.899-.68 1.242zm3.563-3.707l-.68-.394a.4.4 0 0 0-.402.691l.675.39c-.41.513-.98.849-1.613.958a2.68 2.68 0 0 1 1.73-2.656c.169-.063.325-.137.477-.219.035.41-.023.832-.187 1.23zm1.16-4.132a2.682 2.682 0 0 1-.563 1.511 2.92 2.92 0 0 0-.277-.445 2.678 2.678 0 0 1-.004-3.172c.348.324.598.735.73 1.192H21.2a.398.398 0 1 0 0 .796h.805c0 .04.004.079.004.118zm0 0"/>
    <path d="M18.246 15.563A7.11 7.11 0 0 0 19.2 12a7.11 7.11 0 0 0-.953-3.563c-.004-.011-.004-.027-.012-.039-.007-.011-.02-.02-.03-.035a7.213 7.213 0 0 0-2.567-2.566c-.016-.012-.024-.024-.035-.031-.012-.008-.028-.008-.04-.012A7.11 7.11 0 0 0 12 4.8a7.11 7.11 0 0 0-3.563.953c-.011.004-.027.004-.039.012-.011.007-.02.02-.035.03a7.213 7.213 0 0 0-2.566 2.567.253.253 0 0 0-.031.035c-.008.012-.008.024-.012.036a7.136 7.136 0 0 0 0 7.129c.004.011.004.027.012.039.011.02.027.039.043.058a7.273 7.273 0 0 0 2.554 2.543c.016.012.024.024.035.031.016.012.036.016.051.02a7.149 7.149 0 0 0 7.102.004c.015-.008.035-.012.05-.024.012-.007.02-.02.036-.03a7.273 7.273 0 0 0 2.554-2.544c.016-.02.032-.039.043-.058.008-.012.008-.028.012-.04zm-2.707 1.765l-.496-.86a.397.397 0 0 0-.547-.144.397.397 0 0 0-.144.547l.492.856a6.361 6.361 0 0 1-2.442.652v-.984a.401.401 0 0 0-.8 0v.984a6.362 6.362 0 0 1-2.446-.652l.496-.856a.402.402 0 0 0-.695-.402l-.496.86a6.5 6.5 0 0 1-1.79-1.79l.86-.496a.397.397 0 0 0 .145-.547.397.397 0 0 0-.547-.144l-.852.492a6.365 6.365 0 0 1-.656-2.442h.988a.401.401 0 0 0 0-.8h-.988c.055-.875.285-1.7.656-2.446l.852.496a.42.42 0 0 0 .2.051c.14 0 .273-.07.347-.2a.397.397 0 0 0-.145-.546l-.86-.496a6.5 6.5 0 0 1 1.79-1.79l.496.86a.397.397 0 0 0 .547.145.402.402 0 0 0 .148-.547l-.496-.852a6.366 6.366 0 0 1 2.446-.656v.988a.4.4 0 0 0 .8 0v-.988a6.365 6.365 0 0 1 2.442.656l-.492.852a.397.397 0 0 0 .144.547c.063.039.133.054.2.054.14 0 .273-.07.347-.199l.496-.86a6.5 6.5 0 0 1 1.79 1.79l-.86.496a.4.4 0 0 0 .203.746.409.409 0 0 0 .2-.05l.855-.497c.37.746.597 1.57.652 2.446h-.984a.401.401 0 1 0 0 .8h.984a6.361 6.361 0 0 1-.652 2.442l-.856-.492a.4.4 0 0 0-.402.691l.86.496a6.5 6.5 0 0 1-1.79 1.79zm0 0"/>
</svg>
